X: 20381
T: John D. McGurk's
R: jig
M: 6/8
K: Dmajor
~f2d faa|gec Ace|dAA eAA|fAA efg|
~f2d faa|gec ABc|dcd faa|gec d2e:|
K:A
|:cza ece|dBG EGB|Aee Bee|cec Bcd|
cza ece|dBG EGB|~A3 cec|1 dBG A2B:|2 efg a2=g||

